X: 36036
T: Scarce O' Tatties
R: jig
M: 6/8
K: Amixolydian
|:A2e efg|e2B dBG|A2e efg|edB Ace|
a2a g2g|f2f ecA|A2e efg|dBG A3:|
aeg a2f|g2f eAA|aeg a2f|g2f e3|
e3 A3|d2e fed|A2e efg|dBG A3:|

